X:19
T:L'homme qui prit le pain - D254
C:C. Duchesneau
Q:1/4=80
M:3/4
L:1/8
K:Dm
"Rem"D2DD AG|[M:4/4]A3A BA GF|G2GG G2AA|[M:3/4]"Sib"F3F "Solm"GG|[M:4/4]"Lam"E4||
DE FG|A2FAc2AG|A4 GB AG|F2DF E4|D8||
